svg/700/outlined/male-fill.svg

<svg xmlns="http://www.w3.org/2000/svg" width="48" height="48" viewBox="0 -960 960 960"><path d="M823-829v255h-94v-93L573-512q19 30 28.5 63.5T611-380q0 99-69 168t-168 69q-99 0-168-69t-69-168q0-99 69-168t168-69q36 0 68.5 10t62.5 29l156-156h-92v-95h254ZM374.202-523Q314-523 272.5-481.702t-41.5 101.5Q231-320 272.298-278.5t101.5 41.5Q434-237 475.5-278.298t41.5-101.5Q517-440 475.702-481.5t-101.5-41.5Z"/></svg>

<svg xmlns="http://www.w3.org/2000/svg" width="48" height="48" viewBox="0 -960 960 960"><path d="M823-829v255h-94v-93L573-512q19 30 28.5 63.5T611-380q0 99-69 168t-168 69q-99 0-168-69t-69-168q0-99 69-168t168-69q36 0 68.5 10t62.5 29l156-156h-92v-95h254ZM374.2-523q-60.2 0-101.7 41.3T231-380.2q0 60.2 41.3 101.7T373.8-237q60.2 0 101.7-41.3T517-379.8q0-60.2-41.3-101.7T374.2-523Z"/></svg>
